;FLAVOR:Marlin
;TIME:3515
;Filament used: 4.33455m
;Layer height: 0.3
;MINX:70.79
;MINY:71.284
;MINZ:0.2
;MAXX:170.068
;MAXY:138.681
;MAXZ:35
;Generated with Cura_SteamEngine 4.13.1
M82 ;absolute extrusion mode
G21 ; set units to millimeters
G90 ; use absolute positioning
M82 ; absolute extrusion mode
M104 S215.0 ; set extruder temp
M140 S60 ; set bed temp
M190 S60 ; wait for bed temp
M109 S215.0 ; wait for extruder temp
G28 W ; home all without mesh bed level
G80 ; mesh bed leveling
G92 E0.0 ; reset extruder distance position
G1 Y-3.0 F1000.0 ; go outside print area
G1 X60.0 E9.0 F1000.0 ; intro line
G1 X100.0 E21.5 F1000.0 ; intro line
G92 E0.0 ; reset extruder distance position
G92 E0
G92 E0
G1 F2100 E-0.8
;LAYER_COUNT:117
;LAYER:0
M107
G0 F3600 X116.568 Y87.851 Z0.2
;TYPE:SKIRT
G1 F2100 E0
G1 F1800 X116.927 Y87.495 E0.01682
G1 X117.337 Y87.199 E0.03363
G1 X117.76 Y86.984 E0.04942
G1 X118.9 Y86.506 E0.09053
G1 X121.454 Y85.394 E0.18318
G1 X123.893 Y84.248 E0.27281
G1 X126.329 Y83.019 E0.36356
G1 X128.801 Y81.684 E0.457
G1 X131.115 Y80.346 E0.54591
G1 X133.468 Y78.895 E0.63785
G1 X135.725 Y77.416 E0.7276
G1 X138.02 Y75.815 E0.82067
G1 X140.188 Y74.213 E0.91033
G1 X143.003 Y71.985 E1.02973
G1 X143.423 Y71.703 E1.04656
G1 X143.882 Y71.491 E1.06338
G1 X144.369 Y71.355 E1.08019
G1 X144.882 Y71.296 E1.09737
G1 X145.508 Y71.284 E1.11819
G1 X153.09 Y71.284 E1.37037
G1 X153.792 Y71.294 E1.39372
G1 X154.295 Y71.341 E1.41053
G1 X154.785 Y71.467 E1.42735
G1 X155.248 Y71.669 E1.44415
G1 X155.675 Y71.94 E1.46097
G1 X156.131 Y72.354 E1.48146
G1 X156.457 Y72.74 E1.49826
G1 X156.719 Y73.173 E1.5151
G1 X156.909 Y73.642 E1.53193
G1 X157.023 Y74.134 E1.54873
G1 X157.056 Y74.492 E1.56068
G1 X157.102 Y75.786 E1.60375
G1 X157.24 Y78.569 E1.69643
G1 X157.453 Y81.284 E1.787
G1 X157.744 Y84.014 E1.87832
G1 X158.11 Y86.716 E1.96901
G1 X158.558 Y89.439 E2.06079
G1 X159.078 Y92.127 E2.15185
G1 X159.67 Y94.776 E2.24213
G1 X160.337 Y97.417 E2.33273
G1 X161.094 Y100.087 E2.42504
G1 X161.911 Y102.691 E2.51581
G1 X162.804 Y105.276 E2.60677
G1 X163.771 Y107.838 E2.69785
G1 X164.813 Y110.378 E2.78916
G1 X165.923 Y112.881 E2.88023
G1 X167.107 Y115.356 E2.97149
G1 X168.35 Y117.78 E3.06209
G1 X169.459 Y119.809 E3.139
G1 X169.65 Y120.15 E3.152
G1 X169.861 Y120.609 E3.1688
G1 X169.998 Y121.096 E3.18563
G1 X170.057 Y121.624 E3.2033
G1 X170.068 Y122.147 E3.2207
G1 X170.068 Y134.785 E3.64104
G1 X170.059 Y135.512 E3.66522
G1 X170.013 Y136.015 E3.68202
G1 X169.888 Y136.505 E3.69884
G1 X169.687 Y136.969 E3.71566
G1 X169.416 Y137.396 E3.73248
G1 X169.081 Y137.775 E3.7493
G1 X168.691 Y138.096 E3.7661
G1 X168.255 Y138.352 E3.78292
G1 X167.784 Y138.535 E3.79973
G1 X167.29 Y138.643 E3.81654
G1 X166.628 Y138.68 E3.8386
G1 X132.523 Y138.681 E4.97293
G1 X131.79 Y138.669 E4.99732
G1 X128.247 Y138.368 E5.11558
G1 X125.523 Y138.214 E5.20633
G1 X121.416 Y138.127 E5.34296
G1 X74.651 Y138.127 E6.89837
G1 X73.953 Y138.117 E6.92159
G1 X73.45 Y138.07 E6.93839
G1 X72.96 Y137.944 E6.95522
G1 X72.496 Y137.742 E6.97205
G1 X72.07 Y137.47 E6.98886
G1 X71.692 Y137.135 E7.00566
G1 X71.372 Y136.744 E7.02246
G1 X71.117 Y136.307 E7.03929
G1 X70.934 Y135.836 E7.0561
G1 X70.827 Y135.342 E7.07291
G1 X70.791 Y134.672 E7.09523
G1 X70.79 Y130.579 E7.23136
G1 X70.8 Y129.888 E7.25434
G1 X70.848 Y129.384 E7.27118
G1 X70.973 Y128.895 E7.28797
G1 X71.175 Y128.431 E7.3048
G1 X71.447 Y128.005 E7.32161
G1 X71.783 Y127.627 E7.33843
G1 X72.174 Y127.306 E7.35526
G1 X72.671 Y127.023 E7.37428
G1 X73.061 Y126.845 E7.38854
G1 X75.534 Y125.683 E7.47942
G1 X77.983 Y124.446 E7.57068
G1 X80.421 Y123.127 E7.66287
G1 X82.78 Y121.763 E7.7535
G1 X85.09 Y120.337 E7.84379
G1 X87.378 Y118.836 E7.93481
G1 X89.639 Y117.258 E8.02651
G1 X91.841 Y115.627 E8.11765
G1 X93.992 Y113.938 E8.20862
G1 X96.094 Y112.19 E8.29954
G1 X98.129 Y110.395 E8.3898
G1 X100.161 Y108.501 E8.48219
G1 X102.087 Y106.597 E8.57226
G1 X103.981 Y104.622 E8.66328
G1 X105.824 Y102.585 E8.75464
G1 X107.626 Y100.476 E8.84691
G1 X109.315 Y98.382 E8.93638
G1 X110.973 Y96.203 E9.02745
G1 X112.593 Y93.945 E9.11988
G1 X114.101 Y91.71 E9.20956
G1 X115.6 Y89.35 E9.30255
G1 X116.27 Y88.26 E9.3451
G1 X116.568 Y87.851 E9.36193
G0 F3600 X120.833 Y92.894
;TYPE:SUPPORT
G1 F1800 X121.046 Y92.706 E9.37138
G1 X121.314 Y92.599 E9.38098
G1 X121.732 Y92.617 E9.3949
G1 X121.987 Y92.742 E9.40434
G1 X122.194 Y92.958 E9.41429
G1 X122.309 Y93.22 E9.42381
G1 X122.334 Y93.494 E9.43296
G1 X122.26 Y93.777 E9.44269
G1 X122.099 Y94.013 E9.45219
G1 X121.871 Y94.184 E9.46167
G1 X121.603 Y94.268 E9.47101
G1 X121.318 Y94.256 E9.4805
G1 X121.046 Y94.147 E9.49025
G1 X120.83 Y93.96 E9.49975
G1 X120.693 Y93.711 E9.5092
G1 X120.642 Y93.43 E9.5187
G1 X120.694 Y93.139 E9.52853
G1 X120.833 Y92.894 E9.5379
G0 F3600 X120.82 Y93.345
G1 F1800 X122.16 Y93.345 E9.58247
G0 F3600 X145.068 Y78.945
G1 F1800 X145.068 Y74.684 E9.72419
G1 X153.668 Y74.684 E10.01023
G1 X153.668 Y78.945 E10.15195
G1 X145.068 Y78.945 E10.43799
G0 F3600 X145.228 Y77.343
G1 F1800 X153.508 Y77.343 E10.71338
G0 F3600 X152.019 Y78.785
G1 F1800 X152.019 Y74.844 E10.84446
G0 F3600 X149.352 Y74.844
G1 F1800 X149.352 Y78.785 E10.97554
G0 F3600 X146.685 Y78.785
G1 F1800 X146.685 Y74.844 E11.10661
G1 F2100 E10.30661
;MESH:Camera mount bottom.STL
G0 F3600 X124.655 Y90.341
G0 X123.576 Y90.341
G0 X119.934 Y91.665
;TYPE:WALL-INNER
G1 F2100 E11.10661
G1 F1800 X119.59 Y92.054 E11.12389
G1 X119.59 Y90.527 E11.17467
G1 X123.39 Y90.527 E11.30106
G1 X123.39 Y92.049 E11.35168
G1 X123.184 Y91.797 E11.36251
G1 X122.886 Y91.535 E11.37571
G1 X122.547 Y91.326 E11.38895
G1 X122.176 Y91.178 E11.40224
G1 X121.786 Y91.094 E11.41551
G1 X121.387 Y91.077 E11.42879
G1 X120.992 Y91.129 E11.44204
G1 X120.61 Y91.245 E11.45532
G1 X120.252 Y91.426 E11.46866
G1 X119.934 Y91.665 E11.48189
G0 F3600 X119.522 Y92.395
G0 X119.59 Y130.527
G1 F1800 X119.59 Y94.803 E12.67008
G1 X119.94 Y95.195 E12.68756
G1 X120.259 Y95.431 E12.70075
G1 X120.615 Y95.61 E12.71401
G1 X120.996 Y95.726 E12.72725
G1 X121.393 Y95.778 E12.74057
G1 X121.792 Y95.76 E12.75386
G1 X122.181 Y95.676 E12.76709
G1 X122.552 Y95.526 E12.7804
G1 X122.892 Y95.316 E12.79369
G1 X123.189 Y95.052 E12.80691
G1 X123.39 Y94.803 E12.81755
G1 X123.39 Y134.327 E14.13213
G1 X74.59 Y134.327 E15.75522
G1 X74.59 Y130.527 E15.88161
G1 X119.59 Y130.527 E17.37832
G0 F3600 X119.19 Y130.127
;TYPE:WALL-OUTER
G1 F1800 X119.19 Y93.759 E18.58792
G1 X119.19 Y93.099 E18.60987
G1 X119.19 Y90.127 E18.70872
G1 X123.79 Y90.127 E18.86172
G1 X123.79 Y93.592 E18.97696
G1 X123.79 Y134.727 E20.34512
G1 X74.19 Y134.727 E21.99482
G1 X74.19 Y130.127 E22.14782
G1 X119.19 Y130.127 E23.64453
G0 F3600 X119.19 Y129.927
G0 X119.49 Y129.927
G0 X120.994 Y95.619
G0 X121.081 Y95.334
G1 F1800 X121.41 Y95.377 E23.65556
G1 X121.74 Y95.362 E23.66655
G1 X122.063 Y95.292 E23.67754
G1 X122.371 Y95.168 E23.68858
G1 X122.652 Y94.994 E23.69958
G1 X122.899 Y94.775 E23.71056
G1 X123.107 Y94.517 E23.72158
G1 X123.268 Y94.228 E23.73258
G1 X123.377 Y93.917 E23.74354
G1 X123.434 Y93.592 E23.75452
G1 X123.434 Y93.262 E23.76549
G1 X123.376 Y92.933 E23.7766
G1 X123.266 Y92.621 E23.78761
G1 X123.105 Y92.332 E23.79861
G1 X122.895 Y92.076 E23.80962
G1 X122.647 Y91.858 E23.82061
G1 X122.366 Y91.685 E23.83158
G1 X122.059 Y91.562 E23.84258
G1 X121.735 Y91.492 E23.85361
G1 X121.405 Y91.478 E23.86459
G1 X121.077 Y91.521 E23.87559
G1 X120.76 Y91.618 E23.88662
G1 X120.464 Y91.767 E23.89764
G1 X120.2 Y91.965 E23.90862
G1 X119.971 Y92.204 E23.91963
G1 X119.786 Y92.478 E23.93062
G1 X119.651 Y92.779 E23.9416
G1 X119.567 Y93.099 E23.9526
G1 X119.539 Y93.429 E23.96311
G1 X119.567 Y93.759 E23.9726
G1 X119.652 Y94.079 E23.98361
G1 X119.788 Y94.381 E23.99463
G1 X119.973 Y94.655 E24.00562
G1 X120.204 Y94.893 E24.01665
G1 X120.469 Y95.089 E24.02762
G1 X120.764 Y95.237 E24.03859
G1 X121.081 Y95.334 E24.04962
G0 F3600 X121.279 Y95.359
G0 X121.376 Y96.17
;TYPE:SKIN
G1 F1800 X121.843 Y96.148 E24.06517
G1 X122.296 Y96.05 E24.08058
G1 X122.729 Y95.875 E24.09612
G1 X123 Y95.708 E24.1067
G1 X123 Y133.937 E25.37821
G1 X74.98 Y133.937 E26.97536
G1 X74.98 Y130.917 E27.0758
G1 X119.98 Y130.917 E28.57251
G1 X119.98 Y95.709 E29.74353
G1 X120.469 Y95.973 E29.76202
G1 X120.914 Y96.108 E29.77748
G1 X121.376 Y96.17 E29.79299
G0 F3600 X122.677 Y96.09
G1 F1800 X122.819 Y96.232 E29.79967
G0 F3600 X122.262 Y96.24
G1 F1800 X122.819 Y96.797 E29.82587
G0 F3600 X122.819 Y97.363
G1 F1800 X121.787 Y96.331 E29.87441
G0 F3600 X121.221 Y96.331
G1 F1800 X122.819 Y97.929 E29.94957
G0 F3600 X122.819 Y98.495
G1 F1800 X120.493 Y96.169 E30.05898
G0 F3600 X120.159 Y96.4
G1 F1800 X122.819 Y99.06 E30.1841
G0 F3600 X122.819 Y99.626
G1 F1800 X120.159 Y96.966 E30.30922
G0 F3600 X120.159 Y97.531
G1 F1800 X122.819 Y100.192 E30.43436
G0 F3600 X122.819 Y100.757
G1 F1800 X120.159 Y98.097 E30.55948
G0 F3600 X120.159 Y98.663
G1 F1800 X122.819 Y101.323 E30.6846
G0 F3600 X122.819 Y101.889
G1 F1800 X120.159 Y99.229 E30.80971
G0 F3600 X120.159 Y99.794
G1 F1800 X122.819 Y102.454 E30.93483
G0 F3600 X122.819 Y103.02
G1 F1800 X120.159 Y100.36 E31.05995
G0 F3600 X120.159 Y100.926
G1 F1800 X122.819 Y103.586 E31.18507
G0 F3600 X122.819 Y104.151
G1 F1800 X120.159 Y101.491 E31.31019
G0 F3600 X120.159 Y102.057
G1 F1800 X122.819 Y104.717 E31.4353
G0 F3600 X122.819 Y105.283
G1 F1800 X120.159 Y102.623 E31.56042
G0 F3600 X120.159 Y103.188
G1 F1800 X122.819 Y105.848 E31.68554
G0 F3600 X122.819 Y106.414
G1 F1800 X120.159 Y103.754 E31.81066
G0 F3600 X120.159 Y104.32
G1 F1800 X122.819 Y106.98 E31.93578
G0 F3600 X122.819 Y107.545
G1 F1800 X120.159 Y104.885 E32.0609
G0 F3600 X120.159 Y105.451
G1 F1800 X122.819 Y108.111 E32.18601
G0 F3600 X122.819 Y108.677
G1 F1800 X120.159 Y106.017 E32.31113
G0 F3600 X120.159 Y106.582
G1 F1800 X122.819 Y109.243 E32.43627
G0 F3600 X122.819 Y109.808
G1 F1800 X120.159 Y107.148 E32.56139
G0 F3600 X120.159 Y107.714
G1 F1800 X122.819 Y110.374 E32.68651
G0 F3600 X122.819 Y110.94
G1 F1800 X120.159 Y108.279 E32.81165
G0 F3600 X120.159 Y108.845
G1 F1800 X122.819 Y111.505 E32.93677
G0 F3600 X122.819 Y112.071
G1 F1800 X120.159 Y109.411 E33.06189
G0 F3600 X120.159 Y109.977
G1 F1800 X122.819 Y112.637 E33.18701
G0 F3600 X122.819 Y113.202
G1 F1800 X120.159 Y110.542 E33.31213
G0 F3600 X120.159 Y111.108
G1 F1800 X122.819 Y113.768 E33.43724
G0 F3600 X122.819 Y114.334
G1 F1800 X120.159 Y111.674 E33.56236
G0 F3600 X120.159 Y112.239
G1 F1800 X122.82 Y114.9 E33.68753
G0 F3600 X122.82 Y115.466
G1 F1800 X120.159 Y112.805 E33.81269
G0 F3600 X120.159 Y113.371
G1 F1800 X122.82 Y116.031 E33.93783
G0 F3600 X122.82 Y116.597
G1 F1800 X120.159 Y113.936 E34.063
G0 F3600 X120.159 Y114.502
G1 F1800 X122.82 Y117.163 E34.18816
G0 F3600 X122.82 Y117.729
G1 F1800 X120.159 Y115.068 E34.31333
G0 F3600 X120.159 Y115.633
G1 F1800 X122.82 Y118.294 E34.4385
G0 F3600 X122.82 Y118.86
G1 F1800 X120.159 Y116.199 E34.56366
G0 F3600 X120.159 Y116.765
G1 F1800 X122.82 Y119.426 E34.68883
G0 F3600 X122.82 Y119.991
G1 F1800 X120.159 Y117.33 E34.81399
G0 F3600 X120.159 Y117.896
G1 F1800 X122.82 Y120.557 E34.93916
G0 F3600 X122.82 Y121.123
G1 F1800 X120.159 Y118.462 E35.06432
G0 F3600 X120.159 Y119.027
G1 F1800 X122.82 Y121.688 E35.18949
G0 F3600 X122.82 Y122.254
G1 F1800 X120.159 Y119.593 E35.31465
G0 F3600 X120.159 Y120.159
G1 F1800 X122.82 Y122.82 E35.43982
G0 F3600 X122.82 Y123.385
G1 F1800 X120.159 Y120.725 E35.56496
G0 F3600 X120.159 Y121.29
G1 F1800 X122.82 Y123.951 E35.69012
G0 F3600 X122.82 Y124.517
G1 F1800 X120.159 Y121.856 E35.81529
G0 F3600 X120.159 Y122.422
G1 F1800 X122.82 Y125.082 E35.94043
G0 F3600 X122.82 Y125.648
G1 F1800 X120.159 Y122.987 E36.0656
G0 F3600 X120.159 Y123.553
G1 F1800 X122.82 Y126.214 E36.19076
G0 F3600 X122.82 Y126.78
G1 F1800 X120.159 Y124.119 E36.31593
G0 F3600 X120.159 Y124.684
G1 F1800 X122.82 Y127.345 E36.44109
G0 F3600 X122.82 Y127.911
G1 F1800 X120.159 Y125.25 E36.56626
G0 F3600 X120.159 Y125.816
G1 F1800 X122.82 Y128.477 E36.69142
G0 F3600 X122.82 Y129.042
G1 F1800 X120.159 Y126.381 E36.81659
G0 F3600 X120.159 Y126.947
G1 F1800 X122.82 Y129.608 E36.94175
G0 F3600 X122.82 Y130.174
G1 F1800 X120.159 Y127.513 E37.06692
G0 F3600 X120.159 Y128.078
G1 F1800 X122.82 Y130.739 E37.19208
G0 F3600 X122.82 Y131.305
G1 F1800 X120.159 Y128.644 E37.31725
G0 F3600 X120.159 Y129.21
G1 F1800 X122.82 Y131.871 E37.44242
G0 F3600 X122.82 Y132.436
G1 F1800 X120.159 Y129.776 E37.56756
G0 F3600 X120.159 Y130.341
G1 F1800 X122.82 Y133.002 E37.69272
G0 F3600 X122.82 Y133.568
G1 F1800 X120.159 Y130.907 E37.81789
G0 F3600 X119.782 Y131.096
G1 F1800 X122.442 Y133.756 E37.94301
G0 F3600 X121.876 Y133.756
G1 F1800 X119.216 Y131.096 E38.06812
G0 F3600 X118.651 Y131.096
G1 F1800 X121.311 Y133.756 E38.19324
G0 F3600 X120.745 Y133.756
G1 F1800 X118.085 Y131.096 E38.31836
G0 F3600 X117.519 Y131.096
G1 F1800 X120.179 Y133.756 E38.44348
G0 F3600 X119.614 Y133.756
G1 F1800 X116.954 Y131.096 E38.5686
G0 F3600 X116.388 Y131.096
G1 F1800 X119.048 Y133.756 E38.69372
G0 F3600 X118.482 Y133.756
G1 F1800 X115.822 Y131.096 E38.81883
G0 F3600 X115.256 Y131.096
G1 F1800 X117.917 Y133.756 E38.94398
G0 F3600 X117.351 Y133.756
G1 F1800 X114.691 Y131.096 E39.06909
G0 F3600 X114.125 Y131.096
G1 F1800 X116.785 Y133.756 E39.19421
G0 F3600 X116.22 Y133.756
G1 F1800 X113.559 Y131.096 E39.31935
G0 F3600 X112.994 Y131.096
G1 F1800 X115.654 Y133.756 E39.44447
G0 F3600 X115.088 Y133.756
G1 F1800 X112.428 Y131.096 E39.56959
G0 F3600 X111.862 Y131.096
G1 F1800 X114.523 Y133.756 E39.69473
G0 F3600 X113.957 Y133.756
G1 F1800 X111.297 Y131.096 E39.81985
G0 F3600 X110.731 Y131.096
G1 F1800 X113.391 Y133.756 E39.94497
G0 F3600 X112.825 Y133.756
G1 F1800 X110.165 Y131.096 E40.07009
G0 F3600 X109.6 Y131.096
G1 F1800 X112.26 Y133.756 E40.1952
G0 F3600 X111.694 Y133.756
G1 F1800 X109.034 Y131.096 E40.32032
G0 F3600 X108.468 Y131.096
G1 F1800 X111.128 Y133.756 E40.44544
G0 F3600 X110.563 Y133.756
G1 F1800 X107.903 Y131.096 E40.57056
G0 F3600 X107.337 Y131.096
G1 F1800 X109.997 Y133.756 E40.69568
G0 F3600 X109.431 Y133.756
G1 F1800 X106.771 Y131.096 E40.8208
G0 F3600 X106.206 Y131.096
G1 F1800 X108.866 Y133.756 E40.94591
G0 F3600 X108.3 Y133.756
G1 F1800 X105.64 Y131.096 E41.07103
G0 F3600 X105.074 Y131.096
G1 F1800 X107.734 Y133.756 E41.19615
G0 F3600 X107.169 Y133.756
G1 F1800 X104.508 Y131.096 E41.32129
G0 F3600 X103.943 Y131.096
G1 F1800 X106.603 Y133.756 E41.44641
G0 F3600 X106.037 Y133.756
G1 F1800 X103.377 Y131.096 E41.57153
G0 F3600 X102.811 Y131.096
G1 F1800 X105.472 Y133.756 E41.69667
G0 F3600 X104.906 Y133.756
G1 F1800 X102.246 Y131.096 E41.82179
G0 F3600 X101.68 Y131.096
G1 F1800 X104.34 Y133.756 E41.94691
G0 F3600 X103.774 Y133.756
G1 F1800 X101.114 Y131.096 E42.07203
G0 F3600 X100.549 Y131.096
G1 F1800 X103.209 Y133.756 E42.19714
G0 F3600 X102.643 Y133.756
G1 F1800 X99.983 Y131.096 E42.32226
G0 F3600 X99.417 Y131.096
G1 F1800 X102.077 Y133.756 E42.44738
G0 F3600 X101.512 Y133.756
G1 F1800 X98.852 Y131.096 E42.5725
G0 F3600 X98.286 Y131.096
G1 F1800 X100.946 Y133.756 E42.69762
G0 F3600 X100.38 Y133.756
G1 F1800 X97.72 Y131.096 E42.82273
G0 F3600 X97.155 Y131.096
G1 F1800 X99.815 Y133.756 E42.94785
G0 F3600 X99.249 Y133.756
G1 F1800 X96.589 Y131.096 E43.07297
G0 F3600 X96.023 Y131.096
G1 F1800 X98.683 Y133.756 E43.19809
G0 F3600 X98.118 Y133.756
G1 F1800 X95.458 Y131.096 E43.32321
G0 F3600 X94.892 Y131.096
G1 F1800 X97.552 Y133.756 E43.44833
G0 F3600 X96.986 Y133.756
G1 F1800 X94.326 Y131.096 E43.57344
G0 F3600 X93.76 Y131.096
G1 F1800 X96.421 Y133.756 E43.69859
G0 F3600 X95.855 Y133.756
G1 F1800 X93.195 Y131.096 E43.8237
G0 F3600 X92.629 Y131.096
G1 F1800 X95.289 Y133.756 E43.94882
G0 F3600 X94.724 Y133.756
G1 F1800 X92.063 Y131.096 E44.07396
G0 F3600 X91.498 Y131.096
G1 F1800 X94.158 Y133.756 E44.19908
G0 F3600 X93.592 Y133.756
G1 F1800 X90.932 Y131.096 E44.3242
G0 F3600 X90.366 Y131.096
G1 F1800 X93.026 Y133.756 E44.44932
G0 F3600 X92.461 Y133.756
G1 F1800 X89.801 Y131.096 E44.57444
G0 F3600 X89.235 Y131.096
G1 F1800 X91.895 Y133.756 E44.69956
G0 F3600 X91.329 Y133.756
G1 F1800 X88.669 Y131.096 E44.82467
G0 F3600 X88.104 Y131.096
G1 F1800 X90.764 Y133.756 E44.94979
